images/logo3.svg

<?xml version="1.0" encoding="UTF-8" standalone="no"?>
<svg width="150px" height="60px" viewBox="0 0 150 60" version="1.1" xmlns="http://www.w3.org/2000/svg" xmlns:xlink="http://www.w3.org/1999/xlink" xmlns:sketch="http://www.bohemiancoding.com/sketch/ns">
    <!-- Generator: Sketch 3.3.3 (12081) - http://www.bohemiancoding.com/sketch -->
    <title>logo3</title>
    <desc>Created with Sketch.</desc>
    <defs></defs>
    <g id="Page-1" stroke="none" stroke-width="1" fill="none" fill-rule="evenodd" sketch:type="MSPage">
        <g id="logo3" sketch:type="MSArtboardGroup" fill="#FFFFFF">
            <g id="Shape-+-Shape" sketch:type="MSLayerGroup" transform="translate(37.000000, 3.000000)">
                <path d="M75.810221,52.0851456 L75.810221,53.5791505 L69.6928094,53.5791505 L69.6928094,44.8154079 L75.6984629,44.8154079 L75.6984629,46.3087545 L71.4054961,46.3087545 L71.4054961,48.4195014 L75.1154347,48.4195014 L75.1154347,49.8023364 L71.4054961,49.8023364 L71.4054961,52.0851456 L75.810221,52.0851456 L75.810221,52.0851456 Z M63.6125403,53.5791505 L61.9126756,53.5791505 L61.9126756,50.4933836 L58.7237233,44.8154079 L60.585145,44.8154079 L62.7568588,49.0362433 L64.9656322,44.8154079 L66.8142319,44.8154079 L63.6125403,50.5174937 L63.6125403,53.5791505 L63.6125403,53.5791505 Z M50.1869268,44.8154079 L56.1925803,44.8154079 L56.1925803,46.3087545 L51.8995307,46.3087545 L51.8995307,48.4195014 L55.6095521,48.4195014 L55.6095521,49.8023364 L51.8995307,49.8023364 L51.8995307,52.0851456 L56.3042556,52.0851456 L56.3042556,53.5791505 L50.1869268,53.5791505 L50.1869268,44.8154079 L50.1869268,44.8154079 Z M45.89396,53.0849341 C45.5964071,53.2912279 45.2490554,53.4412373 44.8518219,53.5356206 C44.4546712,53.6300862 44.0406451,53.6775659 43.6111499,53.6775659 C42.9487081,53.6775659 42.2956967,53.5791505 41.6501303,53.3809209 C41.0052257,53.1840901 40.4262509,52.9041493 39.9132887,52.5418391 L40.6699514,51.0733432 C40.7446498,51.1469902 40.8786603,51.244089 41.0732236,51.3632407 C41.2677869,51.4824748 41.4973418,51.6023671 41.7618884,51.7215188 C42.0264349,51.8407529 42.3205961,51.9412254 42.6431312,52.0235948 C42.9655835,52.1059642 43.2968044,52.147437 43.6360493,52.147437 C44.5785068,52.147437 45.0504386,51.8467598 45.0504386,51.2460639 C45.0504386,51.0485748 44.9965863,50.8844943 44.8888816,50.7518474 C44.7811769,50.6205995 44.6283884,50.5054798 44.4297717,50.4063238 C44.231155,50.3079084 43.9915079,50.2174749 43.710086,50.1351055 C43.4287468,50.0527361 43.1143185,49.9670752 42.7669668,49.8759834 C42.3455783,49.7607814 41.9792831,49.6348821 41.668991,49.4996021 C41.3586162,49.3636638 41.1001084,49.2050142 40.8934676,49.0241471 C40.6867441,48.8433623 40.5313085,48.6290867 40.4282362,48.3826367 C40.324585,48.1355285 40.2728007,47.8435738 40.2728007,47.5060321 C40.2728007,47.0620931 40.3556059,46.6670326 40.5212163,46.3214267 C40.6867441,45.9759031 40.9163817,45.6879805 41.2098811,45.4569183 C41.5033806,45.2272549 41.8446936,45.0518188 42.2338202,44.9325847 C42.6222024,44.813433 43.0402819,44.7531165 43.4866525,44.7531165 C44.1073194,44.7531165 44.6781874,44.8502153 45.1992564,45.0437546 C45.7202427,45.2366356 46.1753819,45.4656407 46.563764,45.7281366 L45.8071013,47.1109716 C45.7491956,47.0540289 45.643559,46.9750333 45.4906878,46.8766179 C45.3378993,46.7781202 45.1514428,46.6810214 44.9326418,46.5866381 C44.713179,46.4915142 44.4755173,46.4118603 44.2190775,46.3455368 C43.962555,46.279954 43.7020619,46.2471215 43.4374326,46.2471215 C42.9655835,46.2471215 42.6141783,46.3335229 42.3825553,46.5062436 C42.151015,46.6790465 42.0352035,46.9214644 42.0352035,47.234896 C42.0352035,47.4156808 42.0783019,47.5656902 42.1651606,47.684842 C42.2519365,47.804076 42.3785019,47.9092389 42.5441123,47.9995902 C42.709061,48.090682 42.9177699,48.1723931 43.1702389,48.2466984 C43.4226253,48.3210037 43.7141394,48.3986827 44.0453603,48.4810521 C44.4755173,48.5969124 44.8659675,48.7201785 45.2181171,48.8514264 C45.5695223,48.9826744 45.8670751,49.1474132 46.1114374,49.3456429 C46.3551379,49.5424737 46.5435797,49.7795428 46.6755221,50.0547933 C46.808209,50.330702 46.8741389,50.6702186 46.8741389,51.0733432 C46.8741389,51.5420506 46.7852949,51.9438586 46.6075242,52.27671 C46.4298363,52.6094791 46.1921746,52.8793809 45.89396,53.0849341 L45.89396,53.0849341 Z M31.2525739,44.8154079 L32.9651778,44.8154079 L32.9651778,52.0851456 L37.4567613,52.0851456 L37.4567613,53.5791505 L31.2525739,53.5791505 L31.2525739,44.8154079 L31.2525739,44.8154079 Z M21.9342152,44.8154079 L23.6468191,44.8154079 L23.6468191,52.0851456 L28.1384027,52.0851456 L28.1384027,53.5791505 L21.9342152,53.5791505 L21.9342152,44.8154079 L21.9342152,44.8154079 Z M17.3120128,52.3563639 C17.0017207,52.7515067 16.6025019,53.064856 16.1144392,53.29526 C15.6263765,53.5255816 15.0433483,53.6407836 14.3654374,53.6407836 C13.6619653,53.6407836 13.0641298,53.5189163 12.5720136,53.2764985 C12.0798975,53.0340806 11.6807614,52.7126672 11.37444,52.3134924 C11.0687803,51.9143998 10.8473322,51.4516994 10.7106746,50.9246504 C10.5746789,50.398342 10.5060192,49.8512149 10.5060192,49.2833515 L10.5060192,44.8154079 L12.2186231,44.8154079 L12.2186231,49.2833515 C12.2186231,49.6536436 12.2536147,50.0099468 12.3243424,50.3514383 C12.3943257,50.6929299 12.5141079,50.9950059 12.6837717,51.2581601 C12.8534356,51.5219726 13.0748837,51.733615 13.347537,51.8943218 C13.6208522,52.0543702 13.9554647,52.1346825 14.3526154,52.1346825 C14.7578729,52.1346825 15.099186,52.0523953 15.3765545,51.8876565 C15.6532613,51.7229177 15.8767775,51.5099587 16.0464413,51.2460639 C16.2160224,50.9822514 16.3358873,50.6802576 16.4065323,50.3386838 C16.4765983,49.9978506 16.5115899,49.6455794 16.5115899,49.2833515 L16.5115899,44.8154079 L18.2114546,44.8154079 L18.2114546,49.2833515 C18.2114546,49.8840475 18.1394033,50.4478788 17.9946389,50.9741872 C17.8498745,51.5012362 17.6223876,51.9619618 17.3120128,52.3563639 L17.3120128,52.3563639 Z M7.29216736,51.3197931 C7.29216736,51.6907434 7.21746894,52.0155307 7.06865116,52.2947309 C6.91991611,52.5746717 6.71526064,52.8090254 6.45468477,52.9986149 C6.19419162,53.1881221 5.89192361,53.3320423 5.54854251,53.43054 C5.20524414,53.5296137 4.83969341,53.5791505 4.45056678,53.5791505 L0.194659623,53.5791505 L0.194659623,44.8154079 L4.90967665,44.8154079 C5.21599806,44.8154079 5.49270482,44.8817313 5.74112049,45.0129793 C5.98953616,45.1442272 6.20023036,45.3156313 6.37394761,45.5245583 C6.54758214,45.7348019 6.68225437,45.9732699 6.77713707,46.2411145 C6.8721025,46.5083008 6.91991611,46.7781202 6.91991611,47.0493386 C6.91991611,47.4773139 6.81212869,47.8783813 6.59738108,48.2527054 C6.38197169,48.6277701 6.0676262,48.9049954 5.65426187,49.0857802 C6.1584555,49.234473 6.55767428,49.4996021 6.85191821,49.8819903 C7.14541764,50.2643785 7.29216736,50.7438656 7.29216736,51.3197931 L7.29216736,51.3197931 Z M4.95343685,46.5678766 C4.76698034,46.3703053 4.5374254,46.2718899 4.26477204,46.2718899 L1.90726353,46.2718899 L1.90726353,48.4810521 L4.19007362,48.4810521 C4.47951965,48.4810521 4.72594998,48.3826367 4.92853738,48.1844071 C5.1312075,47.9875763 5.23212895,47.7156996 5.23212895,47.3700938 C5.23212895,47.0326343 5.13923158,46.765448 4.95343685,46.5678766 L4.95343685,46.5678766 Z M5.48666608,50.5483514 C5.43281373,50.4050072 5.36076244,50.2791079 5.26985041,50.1719701 C5.1782766,50.0648323 5.07123369,49.9804057 4.94673633,49.9188549 C4.82290075,49.8572219 4.68624318,49.8264465 4.5374254,49.8264465 L1.90726353,49.8264465 L1.90726353,52.1346825 L4.45056678,52.1346825 C4.60740863,52.1346825 4.75490285,52.1059642 4.89089864,52.0483633 C5.02755621,51.9907623 5.14535305,51.9103678 5.24495094,51.807262 C5.34388705,51.7048145 5.42272159,51.5836056 5.48054462,51.4436352 C5.53845037,51.3036648 5.56740324,51.1557126 5.56740324,50.9989556 C5.56740324,50.8429393 5.54051843,50.6929299 5.48666608,50.5483514 L5.48666608,50.5483514 Z" id="Shape" sketch:type="MSShapeGroup"></path>
                <path d="M37.7930283,36.3394233 C27.7876593,36.3394233 19.6768836,28.2711714 19.6768836,18.3186268 C19.6768836,8.36599986 27.7876593,0.29783024 37.7930283,0.29783024 C47.7983973,0.29783024 55.909173,8.36599986 55.909173,18.3186268 C55.909173,28.2711714 47.7983973,36.3394233 37.7930283,36.3394233 L37.7930283,36.3394233 Z M37.7930283,7.16287991 C31.5993466,7.16287991 26.5782563,12.1574611 26.5782563,18.3186268 C26.5782563,24.4797102 31.5993466,29.4742913 37.7930283,29.4742913 C43.9867927,29.4742913 49.0078003,24.4797102 49.0078003,18.3186268 C49.0078003,12.1574611 43.9867927,7.16287991 37.7930283,7.16287991 L37.7930283,7.16287991 Z M37.7930283,20.8929793 C36.3636662,20.8929793 35.2050549,19.7404659 35.2050549,18.3186268 C35.2050549,16.8967877 36.3636662,15.744192 37.7930283,15.744192 C39.2223904,15.744192 40.3810844,16.8967877 40.3810844,18.3186268 C40.3810844,19.7404659 39.2223904,20.8929793 37.7930283,20.8929793 L37.7930283,20.8929793 Z" id="Shape" sketch:type="MSShapeGroup"></path>
            </g>
        </g>
    </g>
</svg>

<svg width="150" height="60" xmlns="http://www.w3.org/2000/svg"><g id="Page-1" stroke="none" stroke-width="1" fill="none" fill-rule="evenodd"><g id="logo3" fill="#FFF"><g id="Shape-+-Shape" transform="translate(37 3)"><path d="M75.81 52.085v1.494h-6.117v-8.764h6.005v1.494h-4.293v2.11h3.71v1.383h-3.71v2.283h4.405zM63.613 53.58h-1.7v-3.086l-3.19-5.678h1.862l2.172 4.221 2.209-4.22h1.848l-3.201 5.701v3.062zm-13.426-8.764h6.006v1.494H51.9v2.11h3.71v1.383H51.9v2.283h4.404v1.494h-6.117v-8.764zm-4.293 8.27a3.044 3.044 0 01-1.042.45 5.347 5.347 0 01-1.24.143 6.642 6.642 0 01-1.962-.297 6.046 6.046 0 01-1.737-.84l.757-1.468c.075.074.209.171.403.29.195.12.424.24.689.359.264.119.559.22.881.302.323.082.654.123.993.123.943 0 1.414-.3 1.414-.9a.757.757 0 00-.161-.495 1.379 1.379 0 00-.46-.346 4.446 4.446 0 00-.719-.27 35.037 35.037 0 00-.943-.26 8.14 8.14 0 01-1.098-.376 2.99 2.99 0 01-.776-.476 1.732 1.732 0 01-.465-.641 2.256 2.256 0 01-.155-.877c0-.444.083-.839.248-1.185a2.41 2.41 0 01.689-.864 3.12 3.12 0 011.024-.524c.388-.12.806-.18 1.253-.18.62 0 1.191.097 1.712.29a6.49 6.49 0 011.365.685l-.757 1.383a2.15 2.15 0 00-.316-.234 3.856 3.856 0 00-.558-.29 4.838 4.838 0 00-.714-.241 3.143 3.143 0 00-.782-.099c-.471 0-.823.087-1.054.26-.232.172-.348.414-.348.728 0 .18.043.33.13.45.087.12.214.224.38.315.164.09.373.172.625.247.253.074.544.152.875.234.43.116.821.24 1.173.37.352.132.65.296.893.495.244.196.433.434.565.709.132.276.198.615.198 1.018 0 .47-.089.87-.266 1.204a2.252 2.252 0 01-.714.808zm-14.641-8.27h1.712v7.27h4.492v1.494h-6.204v-8.764zm-9.319 0h1.713v7.27h4.491v1.494h-6.204v-8.764zm-4.622 7.541a3.27 3.27 0 01-1.198.94c-.488.23-1.07.345-1.749.345-.703 0-1.3-.122-1.793-.365a3.342 3.342 0 01-1.198-.963 3.84 3.84 0 01-.663-1.388 6.535 6.535 0 01-.205-1.642v-4.468h1.713v4.468c0 .37.035.727.105 1.068.07.342.19.644.36.907.17.264.39.476.664.636.273.16.607.24 1.005.24.405 0 .746-.082 1.024-.246.276-.165.5-.378.67-.642.169-.264.289-.566.36-.907.07-.341.105-.693.105-1.056v-4.468h1.7v4.468c0 .601-.073 1.165-.217 1.691a3.86 3.86 0 01-.683 1.382zM7.292 51.32c0 .37-.075.696-.223.975a2.05 2.05 0 01-.614.704 2.87 2.87 0 01-.906.432 3.94 3.94 0 01-1.098.148H.195v-8.764H4.91c.306 0 .583.067.831.198.249.131.46.303.633.512.174.21.308.448.403.716a2.38 2.38 0 01-.18 2.012 1.96 1.96 0 01-.943.833c.504.148.904.414 1.198.796.293.382.44.862.44 1.438zm-2.339-4.752a.91.91 0 00-.688-.296H1.907v2.21H4.19c.29 0 .536-.1.739-.298.202-.196.303-.468.303-.814 0-.337-.093-.605-.279-.802zm.534 3.98a1.262 1.262 0 00-.217-.376 1.01 1.01 0 00-.323-.253.906.906 0 00-.41-.093h-2.63v2.309h2.544a1.114 1.114 0 00.794-.327A1.15 1.15 0 005.567 51a1.28 1.28 0 00-.08-.452zM37.793 36.34c-10.005 0-18.116-8.069-18.116-18.021 0-9.953 8.11-18.021 18.116-18.021 10.005 0 18.116 8.068 18.116 18.02 0 9.953-8.11 18.021-18.116 18.021zm0-29.177c-6.194 0-11.215 4.994-11.215 11.156 0 6.16 5.021 11.155 11.215 11.155S49.008 24.48 49.008 18.32c0-6.162-5.021-11.156-11.215-11.156zm0 13.73a2.581 2.581 0 01-2.588-2.574 2.581 2.581 0 012.588-2.575 2.581 2.581 0 012.588 2.575 2.581 2.581 0 01-2.588 2.574z" id="Shape"/></g></g></g></svg>
